X:18397
T:Waltz
R:Waltz
O:Sweden
M:3/4
C:e. Anders Rosen
K:Dm
A d^c |\
A2 A^c ec|{c}d2 de fe|^c2 cd ec|{c}d3A d^c|\
A2 A^c ec|{c}d2 de fe|^c2 cd ec|{c}d3:|
|: A df|\
a2 ag gb|g2 ge fe|d2 fe ^c2|A3A df|\
a2 ag gb|g2 ge fe|d2 fe ^c2|d3:|


